!!!SOCIAL_FUNCTION:	additional Mide Songs
!!!PDT:	1909
!!!OTL: No_89_Song_of_the_Bear_Path.krn
!!!REG: Great_Lakes
!!!LANG: Non-Tone
!!!LING_GROUP: Algonquin
**kern	**kern
*staff2	*staff1
*clefF4	*clefF4
*k[b-]	*k[b-]
*M3/8	*M3/8
8r	8d\
=1	=1
8GG/L	8d\L
8GG/	8d\
8GG/J	8d\J
=2	=2
8GG/L	4d\
8GG/	.
8GG/J	8A\
=3||	=3||
*M2/8	*M2/8
8GG/L	4A\
8GG/J	.
=4||	=4||
*M4/8	*M4/8
2r	8d\
.	8d\
.	8d\
.	16.d\LL
.	32A\JJk
=5	=5
2r	16A\LL
.	16A\JJ
.	16G\LL
.	[16G\JJ
.	16.G\LL]
.	32F\JJk
.	8F\
=6!|:	=6!|:
2r	8A\
.	8A\
.	8A\
.	16.A\LL
.	32A\JJk
=7	=7
2r	16A\LL
.	16A\JJ
.	16G\LL
.	[16G\JJ
.	16.G\LL]
.	32G\JJk
.	8F\
=8	=8
2r	8G\
.	8G\
.	8G\
.	16.G\LL
.	32G\JJk
=9	=9
2r	16G\LL
.	16G\JJ
.	16G\LL
.	[16F\JJ
.	16.F\LL]
.	32F\JJk
.	8D\
=10	=10
2r	8D\
.	8D\
.	8D\
.	16.D\LL
.	32F\JJk
=11	=11
2r	16F\LL
.	16F\JJ
.	16F\LL
.	[16F\JJ
.	16.F\LL]
.	32F\JJk
.	8D\
=12	=12
2r	8D\
.	8D\
.	8D\
.	16.D\LL
.	32D\JJk
=13	=13
2r	16D\LL
.	16D\JJ
.	16D\LL
.	[16D\JJ
.	16.D\LL]
.	32D\JJk
.	8D\
=14	=14
2r	8D\
.	8D\
.	8.D\L
.	16A\Jk
=15||	=15||
*M2/8	*M2/8
4r	16A\LL
.	16G\
.	16G\
.	16G\JJ
==:|!	==:|!
*-	*-
